X: 21232
M: 2/4
L: 1/16
K: D
V: 1 name="5"
E2 |\
(A2c2) c2BA | c2e2 e4 | (A2c2) c2BA | e2F2 E4 |\
(A2c2) c2BA | c2e2 e4 | c2e2 A2e2 | [c2A2][a2A2E2][a2A2E2] H|]\
E2 |\
f4 E2E2 |\
E2 |\


